X:56
T:Irish Washerwoman
C:Traditional
M:6/8
L:1/8
Q:1/8=480
K:G
dc|:BGG DGG|BGB dcB|cAA DAA|cAc edc|
BGG DGG|BGB dcB|cBc Adc|1 BGG Gdc:|2 BGG Gga |
|:bgg dgg|bgb bag|aff dff|afa agf|
egg dff|cee Bdd|cBc Adc|1 BGG Gga:|2 BGG G3|
